X:1
T:Wallace Tower
T:Wallace Tower
T:Alexander Walker
C:Alexander Walker
L:1/8
M:2/2
K:E
V:1 treble 
V:1
 F | E2 EF ECA,E | F2 FG FECB, | E2 EG Bcef | gbfa gee :| f | e/e/e (ge) fege | begf eccf | %8
 e/e/e (ge) bege | ceBc GEEf | e/e/e (ge) fege | begf eccB | ceBc GBFa | gbfa gee || %14

